app/img/footer-icon-phone.svg

<svg width="35" height="36" viewBox="0 0 35 36" fill="none" xmlns="http://www.w3.org/2000/svg">
<path d="M23.3346 1.76172H11.668C9.24714 1.76172 7.29297 3.71589 7.29297 6.13672V29.4701C7.29297 31.8909 9.24714 33.8451 11.668 33.8451H23.3346C25.7555 33.8451 27.7096 31.8909 27.7096 29.4701V6.13672C27.7096 3.71589 25.7555 1.76172 23.3346 1.76172ZM20.418 30.9284H14.5846V29.4701H20.418V30.9284ZM25.1576 26.5534H9.84505V6.13672H25.1576V26.5534Z" fill="white"/>
</svg>

<svg width="35" height="36" fill="none" xmlns="http://www.w3.org/2000/svg"><path d="M23.335 1.762H11.668a4.37 4.37 0 00-4.375 4.375V29.47a4.37 4.37 0 004.375 4.375h11.667a4.37 4.37 0 004.375-4.375V6.137a4.37 4.37 0 00-4.375-4.375zm-2.917 29.166h-5.833V29.47h5.833v1.458zm4.74-4.375H9.845V6.137h15.313v20.416z" fill="#fff"/></svg>
